images/class_icons/berserker.svg

<svg height="400" viewBox="0 0 400 400" width="400" xmlns="http://www.w3.org/2000/svg"><path d="m299.881.954c-.68.415-10.161 10.05-34.911 35.483-12.244 12.581-44.366 45.588-71.382 73.349-43.729 44.933-73.688 75.758-82.861 85.257-3.84 3.976-4.348 4.843-3.068 5.234 1.046.32 38.559.63 83.164.686 8.128.011 17.508.056 20.844.102l6.067.082.38.541.38.542-4.033 8.23c-7.955 16.235-23.991 48.825-46.715 94.938-18.772 38.094-43.424 88.345-44.59 90.891-.363.793-.754 1.961-.754 2.254 0 .766 1.509 1.236 2.266.706.7-.49 8.25-8.508 148.569-157.783 74.404-79.152 76.276-81.156 76.367-81.761.129-.863-.183-1.263-1.164-1.493-1.775-.415-9.197-.961-60.316-4.437-49.518-3.367-57.75-3.969-58.33-4.268-.888-.458-3.038 3.978 36.943-76.228 30.028-60.238 35.152-70.626 35.152-71.264 0-.859-1.252-1.522-2.008-1.061m-215.022 159.729c-.757.836-5.481 16.343-22.915 75.214-4.517 15.253-9.8 33.077-11.74 39.609-5.878 19.788-8.504 28.918-8.504 29.572 0 .546.673.995 1.492.995.757 0 12.887-1.976 26.511-4.319 9.075-1.56 14.829-2.452 15.499-2.401.749.056.948.393 1.501 2.536.576 2.238.062-.155 8.857 41.228 8.219 38.675 8.817 41.429 9.093 41.851.594.905 2.373.306 2.555-.861.351-2.252 7.634-114.813 7.636-118.023.001-1.122-.114-1.484-.543-1.713-.338-.181-5.324.475-16.933 2.229-23.031 3.481-22.318 3.392-22.689 2.826-.502-.767-.237-3.131 7.968-71.113 4.367-36.177 4.471-37.172 3.938-37.521-.549-.359-1.448-.416-1.726-.109m271.484 88.463c-1.589.625-4.559 2.002-18.151 8.415-46.564 21.968-93.222 44.162-95.911 45.623-2.99 1.625-3.242 1.349 11.633 12.745 13.016 9.972 12.942 9.907 12.414 10.928-.285.551-7.357 5.183-72.266 47.324-33.223 21.57-34.062 22.125-34.192 22.612-.36 1.341.277 2.142 1.499 1.886 2.077-.436 155.271-67.034 162.139-70.487 2.636-1.325 3.175-.845-13.521-12.066-14.753-9.916-14.845-9.982-14.845-10.657 0-.642 2.071-2.428 44.602-38.464 19.057-16.148 18.902-16.01 18.782-16.746-.188-1.159-1.006-1.576-2.183-1.113" fill-rule="evenodd"/></svg>

<svg id="svg" xmlns="http://www.w3.org/2000/svg" xmlns:xlink="http://www.w3.org/1999/xlink" width="400" height="400" viewBox="0, 0, 400,400"><g id="svgg"><path id="path0" d="M299.881 0.954 C 299.201 1.369,289.720 11.004,264.970 36.437 C 252.726 49.018,220.604 82.025,193.588 109.786 C 149.859 154.719,119.900 185.544,110.727 195.043 C 106.887 199.019,106.379 199.886,107.659 200.277 C 108.705 200.597,146.218 200.907,190.823 200.963 C 198.951 200.974,208.331 201.019,211.667 201.065 L 217.734 201.147 218.114 201.688 L 218.494 202.230 214.461 210.460 C 206.506 226.695,190.470 259.285,167.746 305.398 C 148.974 343.492,124.322 393.743,123.156 396.289 C 122.793 397.082,122.402 398.250,122.402 398.543 C 122.402 399.309,123.911 399.779,124.668 399.249 C 125.368 398.759,132.918 390.741,273.237 241.466 C 347.641 162.314,349.513 160.310,349.604 159.705 C 349.733 158.842,349.421 158.442,348.440 158.212 C 346.665 157.797,339.243 157.251,288.124 153.775 C 238.606 150.408,230.374 149.806,229.794 149.507 C 228.906 149.049,226.756 153.485,266.737 73.279 C 296.765 13.041,301.889 2.653,301.889 2.015 C 301.889 1.156,300.637 0.493,299.881 0.954 M84.859 160.683 C 84.102 161.519,79.378 177.026,61.944 235.897 C 57.427 251.150,52.144 268.974,50.204 275.506 C 44.326 295.294,41.700 304.424,41.700 305.078 C 41.700 305.624,42.373 306.073,43.192 306.073 C 43.949 306.073,56.079 304.097,69.703 301.754 C 78.778 300.194,84.532 299.302,85.202 299.353 C 85.951 299.409,86.150 299.746,86.703 301.889 C 87.279 304.127,86.765 301.734,95.560 343.117 C 103.779 381.792,104.377 384.546,104.653 384.968 C 105.247 385.873,107.026 385.274,107.208 384.107 C 107.559 381.855,114.842 269.294,114.844 266.084 C 114.845 264.962,114.730 264.600,114.301 264.371 C 113.963 264.190,108.977 264.846,97.368 266.600 C 74.337 270.081,75.050 269.992,74.679 269.426 C 74.177 268.659,74.442 266.295,82.647 198.313 C 87.014 162.136,87.118 161.141,86.585 160.792 C 86.036 160.433,85.137 160.376,84.859 160.683 M356.343 249.146 C 354.754 249.771,351.784 251.148,338.192 257.561 C 291.628 279.529,244.970 301.723,242.281 303.184 C 239.291 304.809,239.039 304.533,253.914 315.929 C 266.930 325.901,266.856 325.836,266.328 326.857 C 266.043 327.408,258.971 332.040,194.062 374.181 C 160.839 395.751,160.000 396.306,159.870 396.793 C 159.510 398.134,160.147 398.935,161.369 398.679 C 163.446 398.243,316.640 331.645,323.508 328.192 C 326.144 326.867,326.683 327.347,309.987 316.126 C 295.234 306.210,295.142 306.144,295.142 305.469 C 295.142 304.827,297.213 303.041,339.744 267.005 C 358.801 250.857,358.646 250.995,358.526 250.259 C 358.338 249.100,357.520 248.683,356.343 249.146 " stroke="none" fill="#000000" fill-rule="evenodd"></path></g></svg>
